svgs/sharp-regular/print.svg

<svg xmlns="http://www.w3.org/2000/svg" viewBox="0 0 512 512"><!--! Font Awesome Pro 6.6.0 by @fontawesome - https://fontawesome.com License - https://fontawesome.com/license (Commercial License) Copyright 2024 Fonticons, Inc. --><path d="M112 160l0-112 252.1 0L400 83.9l0 76.1 48 0 0-96L384 0 112 0 64 0l0 48 0 112 48 0zM384 368l0 96-256 0 0-96 256 0zM128 320l-48 0 0 32-32 0 0-112 416 0 0 112-32 0 0-32-48 0-256 0zm304 80l32 0 48 0 0-48 0-112 0-48-48 0L48 192 0 192l0 48L0 352l0 48 48 0 32 0 0 64 0 48 48 0 256 0 48 0 0-48 0-64z"/></svg>

<svg xmlns="http://www.w3.org/2000/svg" viewBox="0 0 512 512"><!--! Font Awesome Pro 6.4.0 by @fontawesome - https://fontawesome.com License - https://fontawesome.com/license (Commercial License) Copyright 2023 Fonticons, Inc. --><path d="M112 160V48H364.1L400 83.9V160h48V64L384 0H112 64V48 160h48zM384 368v96H128V368H384zM128 320H80v32H48V240H464V352H432V320H384 128zm304 80h32 48V352 240 192H464 48 0v48V352v48H48 80v64 48h48H384h48V464 400z"/></svg>
